X:3716
T:Liveing Hall
O:england
R:Jig
M:6/8
A:Westmorland
N:P7(?) 1/2
K:A
A2A B2B|c2d ecA|F2F d2c|BcB GFE|\
A2A B2B|c2d ecA|Fdc BAG|A3A,3:|
|:e2e f2f|e2a ecA|e2e f2f|ecA B3|\
e2e f2f|e2a ecA|fag fe^d|e3 E3:|


